projects/oblique/icons/Headphones.svg

<?xml version="1.0" encoding="UTF-8"?><svg id="a" xmlns="http://www.w3.org/2000/svg" viewBox="0 0 24 24"><path d="M11.99973,2.25033C6.62375,2.25033,2.24973,6.68001,2.24973,12.12533h.01172c-.00092.03125-.01172.06152-.01172.09277,0,1.74902,1.42285,3.1709,3.17185,3.1709h.75v-6.3418h-.75c-.40489,0-.7996.08301-1.17051.23047,1.15155-3.21777,4.18555-5.52734,7.74866-5.52734,3.56293,0,6.59692,2.30859,7.74854,5.52734-.37054-.14746-.76489-.23047-1.16943-.23047h-.75v6.3418h.75c.61469,0,1.18433-.18359,1.6709-.4873v4.38086h-5.82324v-.96777h-4.85352v3.43555h4.85352v-.96777h7.32324v-8.65723c0-5.44531-4.37402-9.875-9.75-9.875ZM4.51926,10.81185c.04883-.03223.10059-.06152.15232-.08789v2.9873c-.54588-.27539-.92185-.84082-.92185-1.49316,0-.57129.28711-1.09668.76855-1.40625h.00098ZM12.92648,20.25033h-1.85352v-.43555h1.85352v.43555ZM19.32883,13.71126v-2.9873c.05176.02637.10352.05566.15234.08789.48145.30957.76855.83496.76855,1.40625,0,.65234-.375,1.21777-.9209,1.49316Z"/></svg>

<svg xmlns="http://www.w3.org/2000/svg" viewBox="0 0 24 24"><title>Headphones</title><path d="M11.99973,2.25033a9.82419,9.82419,0,0,0-9.75,9.875h.01171c-.00091.03125-.01171.06152-.01171.09277A3.17457,3.17457,0,0,0,5.42158,15.389h.75V9.0472h-.75a3.165,3.165,0,0,0-1.17051.23047,8.19492,8.19492,0,0,1,15.49719,0,3.15928,3.15928,0,0,0-1.16943-.23047h-.75V15.389h.75a3.14461,3.14461,0,0,0,1.6709-.48731v4.38086H14.42648v-.96777H9.573v3.43555h4.85351v-.96778h7.32325V12.12533A9.82419,9.82419,0,0,0,11.99973,2.25033ZM4.51926,10.81185a1.57867,1.57867,0,0,1,.15232-.08789v2.9873a1.67048,1.67048,0,0,1-.1533-2.89941Zm8.40722,9.43848H11.073v-.43555h1.85351Zm6.40235-6.53907V10.724a1.579,1.579,0,0,1,.15234.08789,1.67089,1.67089,0,0,1-.15234,2.89941Z" fill="#171717"/></svg>
